X:1
T:Egredietur virga - Handl
T:#
%%score 1 2 3
L:1/8
Q:1/4=200
M:none
K:F
V:1 treble nm="Soprano" snm="S"
V:2 treble nm="Alto" snm="A"
V:3 treble-8 nm="Tenor" snm="T"
V:1
"^Egredietur virga""^Jacob Handl\n (1550-91)""^Isaiah 11: 1-2" D8 F4 E4 | F4 D4 (E2 F2 G2 E2 | %2
w: E- gre- di-|e- tur vir * * *|
 F2 G2 A6 ^G^F G4) | A8 z8 |[M:4/2] z8 z4 A4- | A4 G4 F4 E4 | (F2 G2 A2 B2 A8) | G4 A4 F4 G4 | %8
w: |ga|de|* ra- di- ce|Jes\- * * * *|se, de ra- di-|
 A4 A8 ^G4 | (A2 =B2 c2 B2 A2 GF G4) | A8 z4 F4 | F8 D8 | D4 E4 F4 G4 | A8 A8 | A16 | %15
w: ce Jes- se,|Jes\- * * * * * * *|se, et|flos de|ra- di- ce e-|ius a-|scen-|
 A4 D4 (F2 E2 F2 G2 | A2 G2 A2 =B2 c2 B2 c2 d2) | (e2 d2 e2 f2 e2 d4 ^c2) | d8 z4 A4 | %19
w: det, a- scen\- * * *|||det. Et|
 B4 A4 G4 F4 | D4 E4 F8 | F4 F8 E4 | D4 F8 E4 | F4 F6 F2 E4 | D4 C4 F4 G4 | A4 A6 A2 G4 | %26
w: re- qui- e- scet|su- per e-|um Spi- ri-|tus Do- mi-|ni: spi- ri- tus|sa- pi- en- ti-|ae, spi- ri- tus|
 F4 E4 F4 G4 | A8 A8 | =B8 c4 B4- | (B2 A2 A6 ^G2 G4 | A6 =G2) (E2 F2 G2 F2 | E8) z4 A4- | %32
w: sa- pi- en- ti-|ae et|in- tel- lec\-||* * tus * * *|* spi\-|
 A2 A2 G4 A8 | G4 F4 (E2 F2 G2 D2) | (F4 E2 D2 C2) C2 c4 | A4 F8 E4 | %36
w: * ri- tus con-|si- li- i * * *|* * * * et for-|ti- tu- di-|
[Q:1/4=197] F4[Q:1/4=192] F4 E8[Q:1/4=186] | %37
w: nis, et for-|
[Q:1/4=183] D4[Q:1/4=179] D8[Q:1/4=171] ^C4[Q:1/4=181][Q:1/4=177][Q:1/4=175] |[Q:1/4=170] D16 |] %39
w: ti- tu- di-|nis.|
V:2
 z4 D4 D4 C4 | A,4 =B,4 (C2 A,2 B,2 C2 | D2 =B,2 C2 D2 C2 B,A, B,4) | (C2 =B,2 ^C2 D2 E8) | %4
w: E- gre- di-|e- tur vir * * *||ga * * * *|
[M:4/2] z16 | z16 | z4 F8 E4 | D4 C4 (D6 E2 | F8) E8 | (E6 D2 E2 F4 E2) | F8 C8 | D8 z4 A,4 | %12
w: ||de ra-|di- ce Jes\- *|* se,|Jes\- * * * *|se, et|flos de|
 F4 E4 D4 C4 | C4 =B,4 A,4 B,4 | ^C4 D4 E2 F2 E4 | (F2 E2 F2 G2 A6 G2 | F4) F4 E8 | A,4 A4 A8 | %18
w: ra- di- ce e-|ius, de ra- di-|ce e- ius a- scen-|det, * * * * *|* a- scen-|det, a- scen-|
 F16 | z8 z4 C4 | =B,4 C4 D8 | C4 C8 C4 | A,8 C4 C4- | C2 A,2 A,4 C6 C2 | A,4 A,6 A,2 G,4 | %25
w: det.|Et|re- qui- e-|scet su- per|e- um Spi\-|* ri- tus Do- mi-|ni: spi- ri- tus|
 F,4 E,4 A,4 =B,4 | C4 C6 C2 =B,4 | A,4 F4 E6 ^F2 | G4 G4 G4 G4 | E16 | ^C8 z4 D4- | D2 D2 =C4 D8 | %32
w: sa- pi- en- ti-|ae, spi- ri- tus|sa- pi- en- ti-|ae et in- tel-|lec-|tus, spi\-|* ri- tus con-|
 C4 =B,4 A,8 | z4 D4 A,4 =B,4 | D4 =B,4 A,2 A2 F4 | F,2 C4 C2 C8 | A,4 D8 C4 | %37
w: si- li- i|et for- ti-|tu- di- nis et for-|ti- tu- di- nis,|et for- ti-|
 (B,2 A,2 F,2 G,2 A,4) A,4 | A,16 |] %39
w: tu\- * * * * di-|nis.|
V:3
 z16 | z16 | z16 | A8 c4 =B4 |[M:4/2][K:treble-8] c4 A4 (=B2 c2 d2 B2 | c2 A2 d6 ^c2 c4) | %6
w: |||E- gre- di-|e- tur vir\- * * *||
 d4 d8 =c4 | B4 A4 B8 | A4 d4 c4 =B4 | A8 c8 | F8 z4 A4 | A8 F8 | A8 A8 | A4 =B4 ^c4 d4 | %14
w: ga de ra-|di- ce Jes-|se, de ra- di-|ce e-|ius, et|flos, et|flos de|ra- di- ce e-|
 e4 f4 (e2 d4 ^c2) | d16 | z8 z4 A4 | (c2 =B2 c2 d2 e2 f2 e4) | d4 A4 B4 A4 | G4 F4 G4 A4 | %20
w: ius a- scen\- * *|det,|a-|scen\- * * * * * *|det. Et re- qui-|e- scet su- per|
 G8 B4 A4- | A4 A4 G8 | (F2 G2 A2 F2 G6) G2 | F4 A6 A2 G4 | F6 F2 D4 E4 | F4 c6 c2 =B4 | %26
w: e- um Spi\-|* ri- tus|Do\- * * * * mi-|ni: spi- ri- tus|sa- pi- en- ti-|ae, spi- ri- tus|
 (A2 =B2 c2 B2 A4) B4 | (c2 A2 d8) ^c4 | d8 e4 d4- | d4 =c4 =B8 | A8 z8 | z16 | z4 d6 d2 ^c4 | %33
w: sa\- * * * * pi-|en\- * * ti-|ae et in\-|* tel- lec-|tus,||spi- ri- tus|
 d8 c4 =B4 | A4 e4 (A6 =B2 | c4) A4 G6 G2 | F8 A8 | F4 D4 E6 E2 | ^F16 |] %39
w: con- si- li-|i et for\- *|* ti- tu- di-|nis, et|for- ti- tu- di-|nis.|

